IMB-X-Files/The-Ambassadors-Assets/660bfaf8beeee0d9cb9eb412_Frame2.svg

<svg fill="none" height="24" viewBox="0 0 24 24" width="24" xmlns="http://www.w3.org/2000/svg"><path d="m14.25 9.75v11.25m6.75-11.25h-18m17.4-6.75h-16.8c-.15913 0-.31174.06321-.42426.17574-.11253.11252-.17574.26513-.17574.42426v16.8c0 .1591.06321.3117.17574.4243.11252.1125.26513.1757.42426.1757h16.8c.1591 0 .3117-.0632.4243-.1757.1125-.1126.1757-.2652.1757-.4243v-16.8c0-.15913-.0632-.31174-.1757-.42426-.1126-.11253-.2652-.17574-.4243-.17574z" stroke="#fff" stroke-linecap="square" stroke-width="1.5"/></svg>

<svg width="24" height="24" viewBox="0 0 24 24" fill="none" xmlns="http://www.w3.org/2000/svg">
    <path
        d="M14.25 9.75V21M21 9.75H3M20.4 3H3.6C3.44087 3 3.28826 3.06321 3.17574 3.17574C3.06321 3.28826 3 3.44087 3 3.6V20.4C3 20.5591 3.06321 20.7117 3.17574 20.8243C3.28826 20.9368 3.44087 21 3.6 21H20.4C20.5591 21 20.7117 20.9368 20.8243 20.8243C20.9368 20.7117 21 20.5591 21 20.4V3.6C21 3.44087 20.9368 3.28826 20.8243 3.17574C20.7117 3.06321 20.5591 3 20.4 3V3Z"
        stroke="white" stroke-width="1.5" stroke-linecap="square" />
</svg>
